!!!!SEGMENT: pl-kozmzk--mzk-m-346--026_walczynski-franciszek--cantantibus-organis-maestoso.krn
!!!cenid: 18xx:2821
!!!COM: Walczyński, Franciszek
!!!COM-rism: pe30021989
!!!CDT: ~1852-1937
!!!CNT: Polish
!!!OTL: Cantantibus organis – Maestoso
!!!PDT: 1898
!!!AGN: Secular
!!!SMS-siglum: PL-KOZmzk
!!!SMS-shelfmark: mzk/m/346
!!!NIFC-rismID: 1001109275
!!!URL-scan: https://repozytorium.nifc.pl/islandora/object/pl-kozmzk%3A7453/datastream/PDF/view
!!!ONB-nifc:
!!!SMS-variant:
!!!SMS-altvar:
!!!OMD: Maestoso.
**kern	**kern	**dynam
*part2	*part1	*part1
*staff2	*staff1	*
*	*I"Organo	*
*clefF4	*clefG2	*
*k[f#c#g#]	*k[f#c#g#]	*
*M4/4	*M4/4	*
*met(c)	*met(c)	*
=1	=1	=1
*^	*^	*
!LO:TX:b:i:t=Ped.	!	!	!	!
(2A/	([1F#	(4ff#/	[1f#	f
.	.	4cc#/	.	.
4B/	.	4dd/	.	.
8A/L	.	8cc#/L	.	.
8G#/J	.	8b/J	.	.
=2	=2	=2	=2	=2
2A/	1F#]	2cc#/	1f#]	.
2c#/	.	2a/	.	.
=3	=3	=3	=3	=3
2d/	2E\	4.cc#/	(2g#\	.
.	.	8b/	.	.
!	!	!	!	!LO:HP:a
4c#/	4F#\	4a/	4f#\	<
4f#/	4D\	4b/	4a\	.
=4	=4	=4	=4	=4
2e#X/)	2C#\)	2cc#,/)	2g#\)	[
!	!	!	!	!LO:DY:a
2rA	2r	(4cc#/	2r	p
.	.	4g#/	.	.
=5	=5	=5	=5	=5
1rF	1rBB	4cc#/	1r	.
.	.	8b/L	.	.
.	.	8a/J	.	.
.	.	4g#/	.	.
.	.	4f#/)	.	.
=6	=6	=6	=6	=6
!LO:TX:b:i:t=Ped.	!	!	!	!LO:DY:a
(4c#/	([1C#	[1cc#	(2e#X\	fp
4G#/	.	.	.	.
4c#/	.	.	4a\	.
8B/L	.	.	8g#\L	.
8A/J	.	.	8f#\J	.
=7	=7	=7	=7	=7
2G#/	4C#\]	(2cc#/_	2e#X\	.
.	4BB\	.	.	.
[2F#/	2AA#X\	8cc#/L]	[2c#\	.
.	.	8a#X/	.	.
.	.	8f#/	.	.
.	.	8en/J	.	.
=8	=8	=8	=8	=8
!!LO:LB:g=original
!LO:TX:t=P:problem:brak zakończenia łuku	!	!	!	!
2F#,/])	2BB\)	4e/	4c#\])	.
.	.	4d/)	4B\	.
!	!	!	!	!LO:DY:b=2
2r	(4C#\	2rb	2re	pp
.	4GG#\	.	.	.
=9	=9	=9	=9	=9
1r	4C#\	1rdd	1rg	.
.	8BB\L	.	.	.
.	8AAn\J	.	.	.
.	4GG#\	.	.	.
.	4FF#\	.	.	.
=10	=10	=10	=10	=10
!	!	!	!	!LO:DY:a
4A/	[1FF#)	(4cc#/	[1c#	pp
4F#/	.	4a/	.	.
4G#/	.	4b/	.	.
8F#/L	.	8a/L	.	.
8E#X/J	.	8g#/J	.	.
=11	=11	=11	=11	=11
(4F#/	1FF#_	2a/	2c#\]	>
4C#/	.	.	.	.
4F#/	.	2f#/)	2A\	.
4C#/	.	.	.	]
=12	=12	=12	=12	=12
1Dn)	1FF#_	(2e#X/	(1B	.
.	.	4f#/	.	.
!	!	!	!	!LO:HP:a
.	.	4g#/	.	<
=13	=13	=13	=13	=13
!	!	!	!	!LO:DY:a
2C#/	1FF#_	[1f#	2A\	[ pp
!	!	!	!	!LO:HP:a
4D/	.	.	4B\	>
!LO:TX:b:i:t=rit.	!	!	!	!
8C#/L	.	.	8A\L	.
8BB/J	.	.	8G#\J)	.
=14	=14	=14	=14	=14
1C#	1FF#;]	1f#;])	1A	]
*v	*v	*	*	*
*	*v	*v	*
==	==	==
*-	*-	*-
!!!system-decoration: {(s1,s2)}
!!!ENC: Kamil Watkowski
!!!END: 2021-08-09
